!!!COM: Mozart, Wolfgang Amadeus
!!!CDT: 1756///-1791///
!!!OTL: Divertimento IV in B-flat Major
!!!SCA:	K 439b
!!!OMV: No. 1
!!!GNM: No. 4
!!!OMD: Allegro
!!!EEV: 19 Feb 2001
**kern	**kern	**kern
*staff3	*staff2	*staff1
*Ifagot	*Iclars	*Iclars
*clefF4	*clefG2	*clefG2
*k[b-e-]	*k[b-e-]	*k[b-e-]
*met(C)	*met(C)	*met(C)
*M4/4	*M4/4	*M4/4
*MM152	*MM152	*MM152
=1-	=1-	=1-
2BB-/	2B-/	2b-\
2D\	2d/	2dd\
=2	=2	=2
2F\	2f/	2ff\
4r	4r	4r
8F'\L	8f'/L	8ff'\L
8F'\J	8f'/J	8ff'\J
=3	=3	=3
4G\	4g/	4gg\
8E-'\L	8e-'/L	8ee-'\L
8E-'\J	8e-'/J	8ee-'\J
4C/	4c/	4cc\
8F'\L	8f'/L	8ff'\L
8F'\J	8f'/J	8ff'\J
=4	=4	=4
4D'\	4d'/	4dd'\
4BB-'/	4B-'/	4b-'\
2r	2r	2r
=5	=5	=5
4r	(1b-	(2b-\
(4D\	.	.
4E-\	.	2cc\)
4En\)	.	.
=6	=6	=6
(4F\	2a/	(2ee-\
4F#\	.	.
4G\	2b-\)	2dd\)
4D\)	.	.
=7	=7	=7
4E-\	4g/	4cc'\
4r	4r	4cc'\
.	.	(b-q/
4Fn\	4c/	4a/
4r	4r	8g/L
.	.	8f/J)
=8	=8	=8
4D'\	4f'/	4b-'\
4F'\	4a'/	4cc'\
4B-'\	4b-'\	4dd'\
4r	4r	4r
=9	=9	=9
(4D\	(2b-\	4r
4BB-/	.	2bb-\
4E-\	2cc\)	.
4BB-/)	.	(8aa\L
.	.	8gg\J)
=10	=10	=10
(4AA/	(2ee-\	(8gg\L
.	.	8ff\J)
4FF/)	.	(2ff\
2BB-/	2dd\)	.
.	.	4ff#\)
=11	=11	=11
8EE-/L	(8dd\L	(8ff#\L
8E-/	8ee-\	8gg\
8E-/	8gg\	8bb-\
8E-/J	8ee-\J)	8gg\J)
8FF/L	(8dd\L	(8ffn\L
8F/	8b-\	8dd\
8F/	8cc\	8ee-\
8F/J	8a\J)	8cc\J)
=12	=12	=12
8BB-/L	8b-\L	4b-\
8FF/	8b-\	.
8BB-/	8dd\	4r
8FF/J	8b-\J	.
8C/L	8ee-\L	8r
8AA/	8cc\	8ff\L
8FF/	8ff\	8aa\
8F/J	8ee-\J	8ff\J
=13	=13	=13
8BB-/L	8dd\L	4bb-\
8FF/	8b-\	.
8BB-/	8dd\	4r
8FF/J	8b-\J	.
8C/L	8ee-\L	8r
8AA/	8cc\	8ff\L
8FF/	8ff\	8aa\
8F/J	8ee-\J	8ff\J
=14	=14	=14
8BB-/L	8dd\L	8bb-\L
8BB-/	8dd\	8bb-\
8F/	8ff\	8ff\
8F/J	8ff\J	8ff\J
8D/L	8dd\L	8dd\L
8D/	8dd\	8dd\
8BB-/	8b-\	8b-\
8BB-/J	8b-\J	8b-\J
=15	=15	=15
8F\L	8ff\L	8ff\L
8F\	8f\	8f\
8F\	8f\	8f\
8F\J	8f\J	8f\J
4F\	4f/	4f/
4r	4r	4r
=16	=16	=16
8F\L	8a/L	4r
8F\	8a/	.
8F\	8a/	(2cc\
8F\J	8a/J	.
8F\L	8a/L	.
8F\	8a/	.
8F\	8a/	4ff\)
8F\J	8a/J	.
=17	=17	=17
8G\L	8b-\L	(4ff\
8G\	8b-\	.
8G\	8b-\	4een\)
8G\J	8b-\J	.
8C/L	8b-\L	8r
8C/	8b-\	(8bb-\L
8C/	8b-\	8gg\
8C/J	8b-\J	8ee\J)
=18	=18	=18
8F\L	8a/L	4ff\
8F\	8a/	.
8F\	8a/	(2cc\
8F\J	8a/J	.
8FF/L	8a/L	.
8FF/	8a/	.
8FF/	8a/	4ff\)
8FF/J	8a/J	.
=19	=19	=19
8G\L	8b-\L	(4ff\
8G\	8b-\	.
8G\	8b-\	4een\)
8G\J	8b-\J	.
8C/L	8b-\L	8r
8C/	8b-\	(8bb-\L
8C/	8b-\	8gg\
8C/J	8b-\J	8ee\J)
=20	=20	=20
4F\	4a/	[1ff
(4c\	(4ee-\	.
4B-\	4dd\	.
4A\)	4cc#\)	.
=21	=21	=21
(4A\	(4cc#\	2ff\]
4B-\)	4dd\)	.
2r	2r	8r
.	.	(8dd\L
.	.	8bb-\
.	.	8gg\J)
=22	=22	=22
4C/	8r	(4gg\
.	(8a\L	.
4C/	8cc\	2ff\
.	8a\J	.
4C/	8cc/L	.
.	8a/	.
4C/	8b-/	4een\)
.	8g/J)	.
=23	=23	=23
(4D\	[1f	(4ff\
4C/	.	4ee-\
4BB-/	.	4dd\
4AA/)	.	4cc#\)
=24	=24	=24
8BB-/	8f/]	8dd\
8r	8r	8r
(2G\	(2een\	(2bb-\
8A\)	8ff\)	8aa\)
8r	8r	8r
=25	=25	=25
8B-\	8dd\	8gg\
8r	8r	8r
2c\	(2a/	(2ff\
4C/	8g/)	8een\)
.	8r	8r
=26	=26	=26
8F\L	(8a/L	4ff\
8F\	8f/	.
8F\	8c/	4.cc\
8F\J	8A/J)	.
8F\L	(8B-/L	.
8F\	8c/	8bb-\L
8F\	8B-/	8gg\
8F\J	8c/J)	8een\J
=27	=27	=27
8F\L	(8A/L	4ff\
8F\	8c/	.
8F\	8A/	4.cc\
8F\J	8c/J)	.
8F\L	(8B-/L	.
8F\	8c/	8bb-\L
8F\	8B-/	8gg\
8F\J	8c/J)	8een\J
=28	=28	=28
4F'\	4A'/	4ff'\
4FF'/	4cc'\	4aa'\
4F'\	4a'/	4ff'\
4r	4r	4r
=29:|!|:	=29:|!|:	=29:|!|:
2F\	2f/	2ff\
2D\	2d/	2dd\
=30	=30	=30
2BBn/	2Bn/	2bn\
4r	4r	4r
8G'\L	8g'/L	8gg'\L
8G'\J	8g'/J	8gg'\J
=31	=31	=31
4A-\	4a-/	4aa-\
8F'\L	8f'/L	8ff'\L
8F'\J	8f'/J	8ff\J
4D\	4d/	4dd\
8G'\L	8g'/L	8gg'\L
8G'\J	8g'/J	8gg'\J
=32	=32	=32
4E-'\	4e-'/	4ee-'\
4C'/	4c'/	4cc'\
2r	2r	2r
=33	=33	=33
(2G\	(1b-	(2ee-\
2A-\)	.	2dd\)
=34	=34	=34
(4F\	1b-	(2aa-\
4D\	.	.
4BB-/	.	8bb-\L
.	.	8aa-\
4A-\)	.	8gg\
.	.	8ff\J)
=35	=35	=35
(2G\	1b-	(2ee-\
2A-\)	.	2dd\)
=36	=36	=36
(4F\	1b-	(2aa-\
4D\	.	.
4BB-/	.	8bb-\L
.	.	8aa-\
4A-\)	.	8gg\
.	.	8ff\J)
=37	=37	=37
(2G\	1b-	(2ee-\
2F\)	.	2dd\)
=38	=38	=38
4E-'\	4b-\)	4gg\
4E-'\	4b-'\	4gg'\
4r	4r	4r
4D'\	4b-'\	4ff'\
=39	=39	=39
4r	4r	4r
4C'/	4a'/	4ee-'\
4r	4r	4r
4BB-'/	4b-'\	4dd'\
=40	=40	=40
8FF/L	8a/L	4cc\
8F/	8f/	.
8F/	8a/	4r
8F/J	8f/J	.
8A\L	2ee-\	8r
8c\	.	8ff\L
8F\	.	8aa\
8A\J	.	8ff\J
=41	=41	=41
8B-\L	8dd/L	4bb-\
8B-\	8B-/	.
8BB-\	8d/	4r
8BB-\J	8B-/J	.
8D\L	2b-\	8r
8F\	.	8b-\L
8BB-\	.	8dd\
8D\J	.	8b-\J
=42	=42	=42
8F\L	8a/L	4ff\
8F\	8f/	.
8F\	8a/	4r
8F\J	8f/J	.
8A\L	2ee-\	8r
8c\	.	8ff\L
8F\	.	8aa\
8A\J	.	8ff\J
=43	=43	=43
8B-\L	8dd\L	8bb-\L
8B-\	8dd\	8bb-\
8f\	8ff\	8ff\
8f\J	8ff\J	8ff\J
8d\L	8dd\L	8dd\L
8d\	8dd\	8dd\
8B-\	8b-\	8b-\
8B-\J	8b-\J	8b-\J
=44	=44	=44
8f\L	8ff\L	8ff\L
8F\	8f\	8f\
8F\	8f\	8f\
8F\J	8f\J	8f\J
4F\	4f/	4f/
4r	4r	4r
=45	=45	=45
8B-\L	8d/L	4r
8B-\	8d/	.
8B-\	8d/	(2f/
8B-\J	8d/J	.
8B-\L	8d/L	.
8B-\	8d/	.
8B-\	8d/	4b-\)
8B-\J	8d/J	.
=46	=46	=46
8c\L	8e-/L	(4b-\
8c\	8e-/	.
8c\	8e-/	4a/)
8c\J	8e-/J	.
8F\L	8e-/L	8r
8F\	8e-/	(8ee-\L
8F\	8e-/	8cc\
8F\J	8e-/J	8a\J)
=47	=47	=47
8BB-/L	8d/L	4b-\
8BB-/	8d/	.
8BB-/	8d/	(2ff\
8BB-/J	8d/J	.
8B-\L	8dd\L	.
8B-\	8dd\	.
8B-\	8dd\	4bb-\)
8B-\J	8dd\J	.
=48	=48	=48
8c\L	8ee-\L	(4bb-\
8c\	8ee-\	.
8c\	8ee-\	4aa\)
8c\J	8ee-\J	.
8A\L	8cc\L	8r
8A\	8cc\	(8ff\L
8e-\	8a\	8ee-\
8e-\J	8a\J	8cc\J)
=49	=49	=49
(4d\	(4b-\	1b-
4f\	4a-/	.
4e-\	4g/	.
4d\)	4f#/)	.
=50	=50	=50
(4d\	(4f#/	2b-\
4e-\)	4g/)	.
2r	2r	8r
.	.	(8gg\L
.	.	8ee-\
.	.	8cc\J)
=51	=51	=51
4F\	8r	(4cc\
.	(8d/L	.
4F\	8f/	2b-\
.	8d/J	.
4F\	8f/L	.
.	8d/	.
4F\	8e-/	4a/)
.	8c/J)	.
=52	=52	=52
(4G\	4B-/	4b-\
4F\	4b-\	(4aa-\
4E-\	4b-\	4gg\
4D\)	4b-\	4ff#\)
=53	=53	=53
8E-\	8b-\	8gg\
8r	8r	8r
(2C/	(2ee-\	(2aan\
8D\)	8ff\)	8bb-\)
8r	8r	8r
=54	=54	=54
8E-\	8b-\	8gg\
8r	8r	8r
2F\	(2dd\	(2ff\
4F\	4cc\)	4a/)
=55	=55	=55
4B-\	4b-\	2b-\
4r	4r	.
2r	2r	2dd\
=56	=56	=56
1r	2A/	2ff\
.	2c/	4r
.	.	8ff'\L
.	.	8ff'\J
=57	=57	=57
2BB-/	2B-/	4dd\
.	.	8ff'\L
.	.	8ff'\J
2D\	4r	4b-\
.	8B-'/L	8dd\L
.	8B-'/J	8dd\J
=58	=58	=58
2F\	4A/	4cc'\
.	8c'/L	4ff'\
.	8c'/J	.
4r	4F/	4r
8F'\L	8A'/L	4cc\
8F'\J	8A'/J	.
=59	=59	=59
4D\	4B-'/	4dd\
8F'\L	4d'/	4b-\
8F'\J	.	.
4BB-/	4dd\	4bb-\
8D'\L	4ff\	4aa-\
8D'\J	.	.
=60	=60	=60
4E-'\	4ee-'\	4gg'\
4E-'\	4ee-'\	4gg'\
4F'\	4dd'\	4ff'\
4FF'/	4cc'\	4an'/
=61	=61	=61
8BB-\L	(8b-/L	4b-\
8B-\	8f/	.
8B-\	8d/	4.ff\
8B-\J	8f/J)	.
8B-\L	(8e-/L	.
8B-\	8f/	8ee-\L
8B-\	8e-/	8cc\
8B-\J	8f/J)	8a\J
=62	=62	=62
8B-\L	(8d/L	4b-\
8BB-\	8f/	.
8BB-\	8b-/)	4.ff\
8BB-\J	8dd/J	.
8BB-/L	(8ee-/L	.
8BB-/	8cc/	8ee-\L
8BB-/	8a/	8cc\
8BB-/J	8e-/J)	8a\J
=63	=63	=63
4BB-'/	4d'/	4b-'\
4B-'\	4dd'\	4bb-'\
4BB-'/	4d'/	4b-\
4r	4r	4r
==:|!	==:|!	==:|!
*-	*-	*-
!!!ENC: Craig Stuart Sapp
!!!END: 2004/11/26
